src/assets/images/components/page/PageHeader/menu-dropdown-company-icon-about.svg

<svg fill="none" height="28" viewBox="0 0 28 28" width="28" xmlns="http://www.w3.org/2000/svg"><path d="m14.5484 22.8378c1.4958 0 5.5826-5.3695 5.5826-7.3788 0-1.1325-2.5228-3.341-3.8428-3.341-.5763 0-1.4937.8182-2.1616.8182-.6638 0-2.149-1.3062-2.149-1.8762 0-.326.2728-.5072.5967-.5072.5742 0 1.4723.942 2.3927.942.7554 0 1.1487-.5042 1.1487-1.2385 0-.41951-.2248-.8306-.5381-1.34201 1.2007-.58382 3.5852-1.78617 4.3767-3.37594-.8346-1.36359-3.1561-2.26054-5.8959-2.26054-4.0259 0-7.92778 2.39249-8.21185 4.6957-.1057 1.20515.74532 2.47479 2.36063 3.88129l1.70039 1.4777c.54113.4805.85763.7052.85763 1.0099 0 .506-.571.8471-.571 1.4916 0 .5859.2791 1.0856.8864 1.5309 1.9006 1.4318 2.3428 1.6205 2.3428 2.052.0139.7692-.4432 1.353-.4432 2.0658 0 .6424.8321 1.3551 1.5682 1.3551zm-.4434 3.3722c6.6319 0 12.1071-5.4827 12.1071-12.105 0-6.63188-5.4848-12.105-12.1167-12.105-6.62017 0-12.0954 5.47312-12.0954 12.105 0 6.6223 5.48484 12.105 12.105 12.105zm0-1.8764c-5.59267 0-10.2265-4.6338-10.2265-10.2286 0-5.59477 4.62423-10.22861 10.2169-10.22861 5.5948 0 10.2382 4.63384 10.2382 10.22861 0 5.5948-4.6338 10.2286-10.2286 10.2286z" fill="#000"/></svg>

<svg width="28" height="28" viewBox="0 0 28 28" fill="none" xmlns="http://www.w3.org/2000/svg">
<path d="M14.5484 22.8378C16.0442 22.8378 20.131 17.4683 20.131 15.459C20.131 14.3265 17.6082 12.118 16.2882 12.118C15.7119 12.118 14.7945 12.9362 14.1266 12.9362C13.4628 12.9362 11.9776 11.63 11.9776 11.06C11.9776 10.734 12.2504 10.5528 12.5743 10.5528C13.1485 10.5528 14.0466 11.4948 14.967 11.4948C15.7224 11.4948 16.1157 10.9906 16.1157 10.2563C16.1157 9.83679 15.8909 9.4257 15.5776 8.91429C16.7783 8.33047 19.1628 7.12812 19.9543 5.53835C19.1197 4.17476 16.7982 3.27781 14.0584 3.27781C10.0325 3.27781 6.13062 5.6703 5.84655 7.97351C5.74085 9.17866 6.59187 10.4483 8.20718 11.8548L9.90757 13.3325C10.4487 13.813 10.7652 14.0377 10.7652 14.3424C10.7652 14.8484 10.1942 15.1895 10.1942 15.834C10.1942 16.4199 10.4733 16.9196 11.0806 17.3649C12.9812 18.7967 13.4234 18.9854 13.4234 19.4169C13.4373 20.1861 12.9802 20.7699 12.9802 21.4827C12.9802 22.1251 13.8123 22.8378 14.5484 22.8378ZM14.105 26.21C20.7369 26.21 26.2121 20.7273 26.2121 14.105C26.2121 7.47312 20.7273 2 14.0954 2C7.47523 2 2 7.47312 2 14.105C2 20.7273 7.48484 26.21 14.105 26.21ZM14.105 24.3336C8.51233 24.3336 3.8785 19.6998 3.8785 14.105C3.8785 8.51023 8.50273 3.87639 14.0954 3.87639C19.6902 3.87639 24.3336 8.51023 24.3336 14.105C24.3336 19.6998 19.6998 24.3336 14.105 24.3336Z" fill="black"/>
</svg>
